priv/static/svgs/icons_new/sport-triathlon.svg

<svg width="32" height="32" viewBox="0 0 32 32" fill="none" xmlns="http://www.w3.org/2000/svg">
<path d="M14.7419 17.8937C12.6048 16.1249 11.5968 15.8147 11.5968 15.8147C8.37097 14.7389 10.7903 12.2327 10.7903 12.2327L14.8145 8.82406C16.1008 7.83289 16.8589 7.8208 17.4435 7.76842C18.5524 7.66769 18.8548 8.08672 18.8548 8.08672C18.8548 8.08672 19.6169 8.6911 19.9113 9.93208C20.0968 10.7057 20.1048 12.7807 20.7702 13.4052C20.7702 13.4052 21.9476 13.7598 25.0202 14.6623M17.746 11.4591L14.0484 13.9451L17.5444 16.697C17.5444 16.697 17.4758 17.6036 15.6976 24.3202M12.6411 21.935C12.6411 24.4572 10.5968 26.5 8.07258 26.5C5.54839 26.5 3.5 24.4572 3.5 21.935C3.5 19.4127 5.54435 17.3699 8.06855 17.3699C10.5927 17.3699 12.6371 19.4127 12.6371 21.935H12.6411ZM28.5 21.935C28.5 24.4572 26.4556 26.5 23.9315 26.5C21.4073 26.5 19.3629 24.4572 19.3629 21.935C19.3629 19.4127 21.4073 17.3699 23.9315 17.3699C26.4556 17.3699 28.5 19.4127 28.5 21.935ZM25.5242 7.54681C25.5242 8.67724 24.6071 9.59363 23.4758 9.59363C22.3445 9.59363 21.4274 8.67724 21.4274 7.54681C21.4274 6.41639 22.3445 5.5 23.4758 5.5C24.6071 5.5 25.5242 6.41639 25.5242 7.54681Z" stroke="black" stroke-miterlimit="10"/>
</svg>

<svg width="32" height="32" viewBox="0 0 32 32" fill="none" xmlns="http://www.w3.org/2000/svg">
  <symbol id="item" viewBox="0 0 32 32" stroke-width="1" fill="none">
    <path d="M14.742 17.894c-2.137-1.77-3.145-2.08-3.145-2.08-3.226-1.075-.807-3.581-.807-3.581l4.025-3.409c1.286-.991 2.044-1.003 2.629-1.056 1.108-.1 1.41.319 1.41.319s.763.604 1.057 1.845c.186.774.194 2.849.86 3.473 0 0 1.177.355 4.25 1.257m-7.275-3.203-3.698 2.486 3.496 2.752s-.068.907-1.846 7.623m-3.057-2.385A4.565 4.565 0 0 1 8.073 26.5a4.565 4.565 0 1 1-.004-9.13 4.565 4.565 0 0 1 4.568 4.565h.004Zm15.859 0a4.565 4.565 0 0 1-4.569 4.565 4.565 4.565 0 1 1 0-9.13 4.565 4.565 0 0 1 4.569 4.565ZM25.524 7.547a2.048 2.048 0 1 1-4.095-.002 2.048 2.048 0 0 1 4.095.002Z" stroke="currentColor" stroke-miterlimit="10"/>
  </symbol>
</svg>
